src/icons/comment.svg

<svg viewBox="0 0 14 14" focusable="false" class="h-3 w-3" aria-hidden="true">
  <path fill="currentColor"
        d="M0.913134,0.920639 C1.49851,0.331726 2.29348,0 3.12342,0 L10.8766,0 C11.7065,0 12.5015,0.331725 13.0869,0.920639 C13.6721,1.50939 14,2.30689 14,3.13746 L14,8.12943 C13.9962,8.51443 13.9059,8.97125 13.7629,9.32852 C13.6128,9.683 13.3552,10.0709 13.0869,10.3462 C12.813,10.6163 12.4265,10.8761 12.0734,11.0274 C11.7172,11.1716 11.2607,11.263 10.8766,11.2669 L10.1234,11.2669 L10.1234,12.5676 L10.1209,12.5676 C10.1204,12.793 10.0633,13.0791 9.97807,13.262 C9.8627,13.466 9.61158,13.7198 9.40818,13.8382 L9.40824,13.8383 C9.4077,13.8386 9.40716,13.8388 9.40661,13.8391 C9.40621,13.8393 9.4058,13.8396 9.40539,13.8398 L9.40535,13.8397 C9.22958,13.9254 8.94505,13.9951 8.75059,14 L8.74789,14 C8.35724,13.9963 7.98473,13.8383 7.71035,13.5617 L5.39553,11.2669 L3.12342,11.2669 C2.29348,11.2669 1.49851,10.9352 0.913134,10.3462 C0.644826,10.0709 0.387187,9.683 0.23711,9.32852 C0.0941235,8.97125 0.00379528,8.51443 0,8.12943 L0,3.13746 C0,2.30689 0.327915,1.50939 0.913134,0.920639 Z M3.12342,1.59494 C2.71959,1.59494 2.33133,1.75628 2.04431,2.04503 C1.75713,2.33395 1.59494,2.72681 1.59494,3.13746 L1.59494,8.12943 C1.59114,8.35901 1.62114,8.51076 1.71193,8.72129 C1.79563,8.9346 1.88065,9.06264 2.04431,9.22185 C2.33133,9.5106 2.71959,9.67195 3.12342,9.67195 L5.72383,9.67195 C5.93413,9.67195 6.13592,9.75502 6.28527,9.90308 L8.52848,12.1269 L8.52848,10.4694 C8.52848,10.029 8.88552,9.67195 9.32595,9.67195 L10.8766,9.67195 C11.1034,9.67583 11.2517,9.64614 11.4599,9.55518 C11.6712,9.47132 11.7976,9.38635 11.9557,9.22185 C12.1193,9.06264 12.2044,8.9346 12.2881,8.72129 C12.3789,8.51076 12.4089,8.35901 12.4051,8.12943 L12.4051,3.13746 C12.4051,2.72681 12.2429,2.33394 11.9557,2.04503 C11.6687,1.75628 11.2804,1.59494 10.8766,1.59494 L3.12342,1.59494 Z"></path>
</svg>

<svg xmlns="http://www.w3.org/2000/svg" viewBox="0 0 14 14" xmlns:v="https://vecta.io/nano"><path d="M.913.921C1.499.332 2.293 0 3.123 0h7.753c.83 0 1.625.332 2.21.921S14 2.307 14 3.137v4.992c-.004.385-.094.842-.237 1.199-.15.354-.408.742-.676 1.018a3.51 3.51 0 0 1-1.014.681 3.5 3.5 0 0 1-1.197.239h-.753v1.301h-.002c-.001.225-.058.511-.143.694-.115.204-.366.458-.57.576h0l-.003.001c-.176.086-.46.155-.655.16h-.003a1.48 1.48 0 0 1-1.038-.438l-2.315-2.295H3.123c-.83 0-1.625-.332-2.21-.921-.268-.275-.526-.663-.676-1.018C.094 8.971.004 8.514 0 8.129V3.137C0 2.307.328 1.509.913.921zm2.21.674a1.52 1.52 0 0 0-1.079.45 1.55 1.55 0 0 0-.449 1.092v4.992c-.004.23.026.381.117.592.084.213.169.341.332.501a1.52 1.52 0 0 0 1.079.45h2.6c.21 0 .412.083.561.231l2.243 2.224v-1.657a.8.8 0 0 1 .797-.797h1.551a1.24 1.24 0 0 0 .583-.117 1.25 1.25 0 0 0 .496-.333c.164-.159.249-.287.332-.501.091-.211.121-.362.117-.592V3.137a1.55 1.55 0 0 0-.449-1.092 1.52 1.52 0 0 0-1.079-.45H3.123z"/></svg>
